X: 3174
Q: "Reel."
M: C
L: 1/8
K: Bb
d |\
a |\
bfdf egce | dfBd cFFf |\
bfdf egce | dfce dBBa |\
bfdf egce | dfBd cFFf |\
bfdf egce | dfce dBB |]


